X:1
T:The Swan Swims so Bonny, O
M:4/4
L:1/4
K:G
 D| G G F/2G/2 A/2G/2| EG/2-G/2 D2| d2 B3/2 G/2| B d d3/2 d/4d/4| e g/2e/2 d B/2G/2|\
 A G A B/2A/2| G2 E3/2 D/2| E G G||
